resources/haticons/SVG/wb_shade.svg

<!-- Generated by IcoMoon.io -->
<svg version="1.1" xmlns="http://www.w3.org/2000/svg" width="24" height="24" viewBox="0 0 24 24">
<title>wb_shade</title>
<path d="M9 14.016v-4.031h-2.016v4.031h2.016zM8.016 3.984l6 6h-2.016v10.031h-8.016v-10.031h-1.969zM14.016 20.016v-3l3 3h-3zM14.016 12l7.969 8.016h-2.484l-5.484-5.531v-2.484z"></path>
</svg>

<svg xmlns="http://www.w3.org/2000/svg" width="24" height="24"><path d="M9 14.016V9.985H6.984v4.031H9zM8.016 3.984l6 6H12v10.031H3.984V9.984H2.015zm6 16.032v-3l3 3h-3zm0-8.016l7.969 8.016h-2.484l-5.484-5.531v-2.484z"/></svg>
